shader checkNoise01(
	float size = 40,
	float sqz = 4,
	float df = 1.0,
	output closure color BSDF = principled_diffuse(N, df))
{
	point Pos = P;
	float x = Pos[0];
	float y = Pos[1];
	color C = noise(vector(sin(x*size) * sin(y*size*sqz), sin(y*size*sqz)*sin(x*size), Pos[2]));
	BSDF = C * principled_diffuse(N, df);
}
